X: 1162
M: 6/8
L: 1/8
K: D
a3 f3 | d2f Adf | e3 eee | e3 AAA |\
a3 a3 | f2d eaA | d3 ddd | d2z |]
f3 f2c | d3 dcB | f2f FFF | F3 FBd |\
f3 f2c | d3 dcB | f2z f2z | f3 "^da Capo"Adf ]
Ladies' grand chain.

